static/images/content_images/sc_dom_img/bioinformatics.svg

<?xml version="1.0" encoding="UTF-8"?><!DOCTYPE svg PUBLIC "-//W3C//DTD SVG 1.1//EN" "http://www.w3.org/Graphics/SVG/1.1/DTD/svg11.dtd"><svg xmlns="http://www.w3.org/2000/svg" xmlns:xlink="http://www.w3.org/1999/xlink" version="1.1" width="24" height="24" viewBox="0 0 24 24"><path style="stroke:rgb(0,0,0)" d="M4,2H6V4C6,5.44 6.68,6.61 7.88,7.78C8.74,8.61 9.89,9.41 11.09,10.2L9.26,11.39C8.27,10.72 7.31,10 6.5,9.21C5.07,7.82 4,6.1 4,4V2M18,2H20V4C20,6.1 18.93,7.82 17.5,9.21C16.09,10.59 14.29,11.73 12.54,12.84C10.79,13.96 9.09,15.05 7.88,16.22C6.68,17.39 6,18.56 6,20V22H4V20C4,17.9 5.07,16.18 6.5,14.79C7.91,13.41 9.71,12.27 11.46,11.16C13.21,10.04 14.91,8.95 16.12,7.78C17.32,6.61 18,5.44 18,4V2M14.74,12.61C15.73,13.28 16.69,14 17.5,14.79C18.93,16.18 20,17.9 20,20V22H18V20C18,18.56 17.32,17.39 16.12,16.22C15.26,15.39 14.11,14.59 12.91,13.8L14.74,12.61M7,3H17V4L16.94,4.5H7.06L7,4V3M7.68,6H16.32C16.08,6.34 15.8,6.69 15.42,7.06L14.91,7.5H9.07L8.58,7.06C8.2,6.69 7.92,6.34 7.68,6M9.09,16.5H14.93L15.42,16.94C15.8,17.31 16.08,17.66 16.32,18H7.68C7.92,17.66 8.2,17.31 8.58,16.94L9.09,16.5M7.06,19.5H16.94L17,20V21H7V20L7.06,19.5Z" /></svg>

<?xml version="1.0" encoding="utf-8"?>
<!-- Generator: Adobe Illustrator 24.1.0, SVG Export Plug-In . SVG Version: 6.00 Build 0)  -->
<svg version="1.1" id="Layer_1" xmlns="http://www.w3.org/2000/svg" xmlns:xlink="http://www.w3.org/1999/xlink" x="0px" y="0px"
	 viewBox="0 0 24 24" style="enable-background:new 0 0 24 24;" xml:space="preserve">
<style type="text/css">
	.st0{fill:#013243;stroke:#013243;}
</style>
<path class="st0" d="M4,2h2v2c0,1.4,0.7,2.6,1.9,3.8c0.9,0.8,2,1.6,3.2,2.4l-1.8,1.2c-1-0.7-2-1.4-2.8-2.2C5.1,7.8,4,6.1,4,4V2
	 M18,2h2v2c0,2.1-1.1,3.8-2.5,5.2c-1.4,1.4-3.2,2.5-5,3.6c-1.8,1.1-3.4,2.2-4.7,3.4C6.7,17.4,6,18.6,6,20v2H4v-2
	c0-2.1,1.1-3.8,2.5-5.2c1.4-1.4,3.2-2.5,5-3.6c1.8-1.1,3.4-2.2,4.7-3.4C17.3,6.6,18,5.4,18,4V2 M14.7,12.6c1,0.7,2,1.4,2.8,2.2
	c1.4,1.4,2.5,3.1,2.5,5.2v2h-2v-2c0-1.4-0.7-2.6-1.9-3.8c-0.9-0.8-2-1.6-3.2-2.4L14.7,12.6 M7,3h10v1l-0.1,0.5H7.1L7,4V3 M7.7,6h8.6
	c-0.2,0.3-0.5,0.7-0.9,1.1l-0.5,0.4H9.1L8.6,7.1C8.2,6.7,7.9,6.3,7.7,6 M9.1,16.5h5.8l0.5,0.4c0.4,0.4,0.7,0.7,0.9,1.1H7.7
	c0.2-0.3,0.5-0.7,0.9-1.1L9.1,16.5 M7.1,19.5h9.9L17,20v1H7v-1L7.1,19.5z"/>
</svg>
